X:1
T:A Rainbow on the Cloud
T:A Rainbow on the Cloud
T:Charles Hutchinson Gabriel
T:Eliza Edmunds Hewitt, 1914
T:Public Domain Courtesy of the Cyber Hymnal™
T:Public Domain Courtesy of the Cyber Hymnal™
C:Charles Hutchinson Gabriel
Z:Public Domain
Z:Courtesy of the Cyber Hymnal™
%%score ( 1 2 ) ( 3 4 )
L:1/8
Q:1/4=90
M:4/4
K:D
V:1 treble 
V:2 treble 
V:3 bass 
V:4 bass 
V:1
 [DF][EG] | [FA][FA][FA][FA] [Fd]2 [Gc][GB] | [FA][FB][FA][FB] [FA]2 [DF][DF] | %3
w: 1.~Be not|wea- ry or cast down, When the|heav- ens seem to frown, There’s a|
w: 2.~He whose|word re- buked the storm Now is|a- ble to per- form Ev- ery|
w: 3.~There’s a|rain- bow on the cloud! Tho’ your|soul is sor- row- bowed, Lift your|
 [EA][EA][CE][EG] [Gc]2 [GB]2 | [DF]6 [DF][EG] | [FA][FA][FA][FA] [Fd]2 [FA][FA] | %6
w: rain- bow on the cloud for|you! ’Tis an|arch of prom- ise bright, Ear- nest|
w: word He whis- pers to your|heart; Whol- ly|lean up- on Him, then, For the|
w: voice to praise the Lord to-|day; There’s a|rain- bow ’round the throne; In its|
 [GB][Bd][Ac][GB] [FA]2 [DF][^B,F] | [CE][CF][D^G][EA] [GB]2 [Gc]2 | A4 !fermata![GA]2 || %9
w: of un- fad- ing light Pour- ing|from a sky of ra- diant|blue. *|
w: sun will shine a- gain, And the|sha- dows ev- er- more de-|part. There’s|
w: glo- ry we will own That He|led us in His per- fect|way. *|
"^Refrain" [GB][Gc] | [Fd]2 [Fd]2 cBAB | F6 [FA][FA] | [Fd]2 [Fd]2 cBAB | G6 [CE][DF] | %14
w: |||||
w: * a|rain- bow on the cloud for|you, There’s a|prom- ise that is sure and|true; Yes, the|
w: |||||
 [EG][^DF][EG][FA] [Gc]2 [FA][EG] | [DF][D^E][DF][CA] !fermata![Dd]2 [Dc][DB] | %16
w: ||
w: storm will pass a- way; There will|dawn a bright- er day— There’s a|
w: ||
 [DA][Dd][DA][DB] [DF]2 [CE]2 | D6 |] %18
w: ||
w: rain- bow on the cloud for|you.|
w: ||
V:2
 x2 | x8 | x8 | x8 | x8 | x8 | x8 | x8 | A2 F2 x2 || x2 | x4 F2 F2 | (D2 D2 D2) x2 | x4 F2 F2 | %13
 (C2 C2 C2) x2 | x8 | x8 | x8 | D6 |] %18
V:3
 [D,A,][D,A,] | [D,D][D,D][D,D][D,D] [D,A,]2 [D,B,][D,C] | %2
 [D,D][D,D][D,D][D,D] [D,D]2 [D,A,][D,A,] | [A,,C][A,,C][A,,A,][A,,C] [A,,A,]2 [A,,C]2 | %4
 [D,A,]6 [D,A,][D,A,] | [D,D][D,D][D,D][D,D] [D,A,]2 [D,D][D,D] | %6
 [G,D][G,D][G,D][G,D] [D,D]2 [D,A,][^D,A,] | [E,A,][D,A,][D,B,][E,C] [E,D]2 [E,E]2 | (C2 D2 E2) || %9
 [A,C]A, | [D,A,]2 [D,A,]2 [D,A,]2 [D,D]2 | ([D,A,]2 [D,A,]2 [D,A,]2) [D,D][D,D] | %12
 [D,A,]2 [D,A,]2 [D,A,]2 [D,D]2 | ([E,A,]2 [E,A,]2 [E,A,]2) [A,,A,][A,,A,] | %14
 [A,,A,][A,,A,][A,,A,][A,,A,] [A,,A,]2 [A,,A,][A,,A,] | %15
 [D,A,][D,^G,][D,A,][E,A,] !fermata![F,A,]2 [=G,B,][G,D] | [F,D][F,A,][F,D][G,D] A,2 [A,,G,]2 | %17
 [D,F,]6 |] %18
V:4
 x2 | x8 | x8 | x8 | x8 | x8 | x8 | x8 | A,,6 || x A, | x8 | x8 | x8 | x8 | x8 | x8 | x4 A,2 x2 | %17
 x6 |] %18

